Newaita/actions/16/tools-media-optical-copy.svg

<svg height="16" viewBox="0 0 16 16" width="16" xmlns="http://www.w3.org/2000/svg"><g fill="#424242"><path d="m11.90625 9.386719c-1.464844 0-2.644531 1.179687-2.644531 2.644531 0 1.46875 1.179687 2.648438 2.644531 2.648438 1.46875 0 2.648438-1.179688 2.648438-2.648438 0-1.464844-1.179688-2.644531-2.648438-2.644531zm0 .660156c1.101562 0 1.984375.886719 1.984375 1.984375 0 1.101562-.882813 1.984375-1.984375 1.984375-1.097656 0-1.984375-.882813-1.984375-1.984375 0-1.097656.886719-1.984375 1.984375-1.984375zm0 0"/><path d="m7.9375 1.449219c-3.664062 0-6.613281 2.949219-6.613281 6.613281s2.949219 6.617188 6.613281 6.617188v-1.324219c-2.929688 0-5.292969-2.359375-5.292969-5.292969 0-2.929688 2.363281-5.292969 5.292969-5.292969 2.933594 0 5.292969 2.363281 5.292969 5.292969h1.324219c0-3.664062-2.953126-6.613281-6.617188-6.613281zm0 0"/><path d="m7.9375 6.078125c-1.097656 0-1.984375.886719-1.984375 1.984375 0 1.101562.886719 1.984375 1.984375 1.984375v-.660156c-.730469 0-1.324219-.589844-1.324219-1.324219 0-.730469.59375-1.324219 1.324219-1.324219.734375 0 1.324219.59375 1.324219 1.324219h.660156c0-1.097656-.882813-1.984375-1.984375-1.984375zm0 0"/><path d="m7.9375 4.09375c-2.199219 0-3.96875 1.769531-3.96875 3.96875h.660156c0-1.832031 1.476563-3.308594 3.308594-3.308594zm0 0"/><path d="m11.90625 11.039062c-.546875 0-.992188.445313-.992188.992188 0 .550781.445313.992188.992188.992188.550781 0 .992188-.441407.992188-.992188 0-.546875-.441407-.992188-.992188-.992188zm0 .664063c.183594 0 .332031.144531.332031.328125s-.148437.332031-.332031.332031-.328125-.148437-.328125-.332031.144531-.328125.328125-.328125zm0 0"/></g></svg>

<svg xmlns="http://www.w3.org/2000/svg" xmlns:xlink="http://www.w3.org/1999/xlink" width="16px" height="16px" viewBox="0 0 16 16" version="1.1">
<g id="surface1">
     <defs>
  <style id="current-color-scheme" type="text/css">
   .ColorScheme-Text { color:#424242; } .ColorScheme-Highlight { color:#eeeeee; }
  </style>
 </defs>
<path style="fill:currentColor" class="ColorScheme-Text" d="M 11.90625 9.386719 C 10.441406 9.386719 9.261719 10.566406 9.261719 12.03125 C 9.261719 13.5 10.441406 14.679688 11.90625 14.679688 C 13.375 14.679688 14.554688 13.5 14.554688 12.03125 C 14.554688 10.566406 13.375 9.386719 11.90625 9.386719 Z M 11.90625 10.046875 C 13.007812 10.046875 13.890625 10.933594 13.890625 12.03125 C 13.890625 13.132812 13.007812 14.015625 11.90625 14.015625 C 10.808594 14.015625 9.921875 13.132812 9.921875 12.03125 C 9.921875 10.933594 10.808594 10.046875 11.90625 10.046875 Z M 11.90625 10.046875 "/>
     <defs>
  <style id="current-color-scheme" type="text/css">
   .ColorScheme-Text { color:#424242; } .ColorScheme-Highlight { color:#eeeeee; }
  </style>
 </defs>
<path style="fill:currentColor" class="ColorScheme-Text" d="M 7.9375 1.449219 C 4.273438 1.449219 1.324219 4.398438 1.324219 8.0625 C 1.324219 11.726562 4.273438 14.679688 7.9375 14.679688 L 7.9375 13.355469 C 5.007812 13.355469 2.644531 10.996094 2.644531 8.0625 C 2.644531 5.132812 5.007812 2.769531 7.9375 2.769531 C 10.871094 2.769531 13.230469 5.132812 13.230469 8.0625 L 14.554688 8.0625 C 14.554688 4.398438 11.601562 1.449219 7.9375 1.449219 Z M 7.9375 1.449219 "/>
     <defs>
  <style id="current-color-scheme" type="text/css">
   .ColorScheme-Text { color:#424242; } .ColorScheme-Highlight { color:#eeeeee; }
  </style>
 </defs>
<path style="fill:currentColor" class="ColorScheme-Text" d="M 7.9375 6.078125 C 6.839844 6.078125 5.953125 6.964844 5.953125 8.0625 C 5.953125 9.164062 6.839844 10.046875 7.9375 10.046875 L 7.9375 9.386719 C 7.207031 9.386719 6.613281 8.796875 6.613281 8.0625 C 6.613281 7.332031 7.207031 6.738281 7.9375 6.738281 C 8.671875 6.738281 9.261719 7.332031 9.261719 8.0625 L 9.921875 8.0625 C 9.921875 6.964844 9.039062 6.078125 7.9375 6.078125 Z M 7.9375 6.078125 "/>
     <defs>
  <style id="current-color-scheme" type="text/css">
   .ColorScheme-Text { color:#424242; } .ColorScheme-Highlight { color:#eeeeee; }
  </style>
 </defs>
<path style="fill:currentColor" class="ColorScheme-Text" d="M 7.9375 4.09375 C 5.738281 4.09375 3.96875 5.863281 3.96875 8.0625 L 4.628906 8.0625 C 4.628906 6.230469 6.105469 4.753906 7.9375 4.753906 Z M 7.9375 4.09375 "/>
     <defs>
  <style id="current-color-scheme" type="text/css">
   .ColorScheme-Text { color:#424242; } .ColorScheme-Highlight { color:#eeeeee; }
  </style>
 </defs>
<path style="fill:currentColor" class="ColorScheme-Text" d="M 11.90625 11.039062 C 11.359375 11.039062 10.914062 11.484375 10.914062 12.03125 C 10.914062 12.582031 11.359375 13.023438 11.90625 13.023438 C 12.457031 13.023438 12.898438 12.582031 12.898438 12.03125 C 12.898438 11.484375 12.457031 11.039062 11.90625 11.039062 Z M 11.90625 11.703125 C 12.089844 11.703125 12.238281 11.847656 12.238281 12.03125 C 12.238281 12.214844 12.089844 12.363281 11.90625 12.363281 C 11.722656 12.363281 11.578125 12.214844 11.578125 12.03125 C 11.578125 11.847656 11.722656 11.703125 11.90625 11.703125 Z M 11.90625 11.703125 "/>
</g>
</svg>
